X: 5
T: Rip The Calico
R: reel
M: 4/4
L: 1/8
K: Dmix
|: d3c defd | ed (3Bcd egfe | d3c defd | efdB A3B |
d3c defd | ed (3Bcd egfe | d3c defd | efdB A3B ||
|:dB B2 gefd | ed (3Bcd egfe | dB B2 gefd |efdB A3B |
dB B2 gefd | ed (3Bcd egfe | dB B2 gefd |efdB A3e ||
|: faaf (3gfe fd | ed (3Bcd efge |faaf (3gfe fd |efdB A3e|
faaf (3gfe fd | ed (3Bcd efge | fa a2 | bfaf | e2ef gfge ||


Tune 719	Setting 719

